assets/Aquarius/Flat/aquarius_flat.svg

<svg width="32" height="32" viewBox="0 0 32 32" fill="none" xmlns="http://www.w3.org/2000/svg">
<path d="M2 6C2 3.79086 3.79086 2 6 2H26C28.2091 2 30 3.79086 30 6V26C30 28.2091 28.2091 30 26 30H6C3.79086 30 2 28.2091 2 26V6Z" fill="#8D65C5"/>
<path d="M25.34 14.23C25.53 14.4 25.77 14.48 26 14.48C26.27 14.48 26.53 14.37 26.71 14.16C27.07 13.76 27.04 13.14 26.64 12.78L23.31 9.76C22.94 9.42 22.37 9.42 22 9.76L19.41 12.11C19.36 12.15 19.29 12.15 19.24 12.11L16.65 9.76C16.28 9.42 15.71 9.42 15.34 9.76L12.75 12.11C12.7 12.15 12.63 12.15 12.58 12.11L9.98998 9.76C9.61998 9.42 9.04998 9.42 8.67998 9.76L5.34998 12.78C4.94998 13.14 4.91998 13.76 5.27998 14.16C5.63998 14.56 6.25998 14.59 6.65998 14.23L9.24998 11.88C9.29998 11.84 9.36998 11.84 9.41998 11.88L12.02 14.23C12.39 14.57 12.96 14.57 13.33 14.23L15.92 11.88C15.97 11.84 16.04 11.84 16.09 11.88L18.68 14.23C19.05 14.57 19.62 14.57 19.99 14.23L22.58 11.88C22.63 11.84 22.7 11.84 22.75 11.88L25.34 14.23Z" fill="white"/>
<path d="M25.34 22.24C25.53 22.41 25.77 22.49 26 22.49C26.27 22.49 26.53 22.38 26.72 22.17C27.08 21.77 27.05 21.15 26.65 20.79L23.32 17.77C22.95 17.43 22.38 17.43 22.01 17.77L19.42 20.12C19.37 20.16 19.3 20.16 19.25 20.12L16.66 17.77C16.29 17.43 15.72 17.43 15.35 17.77L12.76 20.12C12.71 20.16 12.64 20.16 12.59 20.12L9.99999 17.77C9.62999 17.43 9.05999 17.43 8.68999 17.77L5.35999 20.79C4.95999 21.15 4.92999 21.77 5.28999 22.17C5.64999 22.57 6.26999 22.6 6.66999 22.24L9.25999 19.89C9.30999 19.85 9.37999 19.85 9.42999 19.89L12.02 22.24C12.39 22.58 12.96 22.58 13.33 22.24L15.92 19.89C15.97 19.85 16.04 19.85 16.09 19.89L18.68 22.24C19.05 22.58 19.62 22.58 19.99 22.24L22.58 19.89C22.63 19.85 22.7 19.85 22.75 19.89L25.34 22.24Z" fill="white"/>
</svg>

<svg xmlns="http://www.w3.org/2000/svg" width="32" height="32" fill="none"><path fill="#8D65C5" d="M2 6a4 4 0 0 1 4-4h20a4 4 0 0 1 4 4v20a4 4 0 0 1-4 4H6a4 4 0 0 1-4-4V6Z"/><path fill="#fff" d="M25.34 14.23c.19.17.43.25.66.25.27 0 .53-.11.71-.32.36-.4.33-1.02-.07-1.38l-3.33-3.02a.969.969 0 0 0-1.31 0l-2.59 2.35c-.05.04-.12.04-.17 0l-2.59-2.35a.969.969 0 0 0-1.31 0l-2.59 2.35c-.05.04-.12.04-.17 0L9.99 9.76a.969.969 0 0 0-1.31 0l-3.33 3.02c-.4.36-.43.98-.07 1.38.36.4.98.43 1.38.07l2.59-2.35c.05-.04.12-.04.17 0l2.6 2.35c.37.34.94.34 1.31 0l2.59-2.35c.05-.04.12-.04.17 0l2.59 2.35c.37.34.94.34 1.31 0l2.59-2.35c.05-.04.12-.04.17 0l2.59 2.35ZM25.34 22.24c.19.17.43.25.66.25.27 0 .53-.11.72-.32.36-.4.33-1.02-.07-1.38l-3.33-3.02a.969.969 0 0 0-1.31 0l-2.59 2.35c-.05.04-.12.04-.17 0l-2.59-2.35a.969.969 0 0 0-1.31 0l-2.59 2.35c-.05.04-.12.04-.17 0L10 17.77a.969.969 0 0 0-1.31 0l-3.33 3.02c-.4.36-.43.98-.07 1.38.36.4.98.43 1.38.07l2.59-2.35c.05-.04.12-.04.17 0l2.59 2.35c.37.34.94.34 1.31 0l2.59-2.35c.05-.04.12-.04.17 0l2.59 2.35c.37.34.94.34 1.31 0l2.59-2.35c.05-.04.12-.04.17 0l2.59 2.35Z"/></svg>
